src/assets/icons/address.svg

<svg xmlns="http://www.w3.org/2000/svg" xmlns:xlink="http://www.w3.org/1999/xlink" fill="none" version="1.1" width="24" height="24" viewBox="0 0 24 24"><g><g></g><g><path d="M19.721,10.86049C19.721,6.52403,16.197,3,11.86049,3C7.52403,3,4,6.52403,4,10.86049C4,12.91108,5.02776,14.4527,6.29879,15.8675L6.65088,16.250500000000002C6.71037,16.3139,6.7702100000000005,16.377200000000002,6.83034,16.4402L7.19389,16.817L8.37154,18.020200000000003L8.981290000000001,18.6149L9.99339,19.5748L11.29074,20.7784C11.61782,21.0739,12.11372,21.0739,12.4408,20.7784C12.49848,20.725,12.55948,20.6684,12.62332,20.6092L13.96884,19.3531L14.6667,18.6901L15.0858,18.284L15.4399,17.9315L16.7389,16.598100000000002C16.799799999999998,16.535,16.860300000000002,16.4717,16.9206,16.4084L17.2774,16.0268C18.625500000000002,14.557,19.721,12.99065,19.721,10.86049ZM11.860479999999999,4.47705C8.33645,4.47705,5.48768,7.32582,5.4982,10.84985C5.4982,12.71616,6.51004,14.1351,7.70532,15.4123L8.051110000000001,15.7737L8.57912,16.3047L9.01709,16.7312L10.02323,17.6819L11.66001,19.2062C11.77607,19.3118,11.95544,19.3118,12.0715,19.2062L14.2969,17.124000000000002L14.8604,16.5881L15.3394,16.119500000000002L15.6906,15.7664L16.0357,15.4068C17.2283,14.1351,18.2333,12.71616,18.2333,10.84985C18.2333,7.32582,15.3845,4.47705,11.860479999999999,4.47705ZM15.1524,10.51237C15.1524,8.697600000000001,13.67529,7.22046,11.86051,7.22046C10.04574,7.22046,8.5686,8.697600000000001,8.5686,10.51237C8.5686,12.32714,10.04574,13.8043,11.86051,13.8043C13.67529,13.8043,15.1524,12.32714,15.1524,10.51237ZM9.97186,10.50167C9.97186,9.45712,10.815940000000001,8.61304,11.86049,8.61304C12.90504,8.61304,13.74912,9.45712,13.74912,10.50167C13.74912,11.54621,12.90504,12.39029,11.86049,12.39029C10.815940000000001,12.39029,9.97186,11.54621,9.97186,10.50167Z" fill-rule="evenodd" fill="#40AE36" fill-opacity="1"/></g></g></svg>

<svg xmlns="http://www.w3.org/2000/svg" width="24" height="24" fill="none"><path fill="#40AE36" fill-rule="evenodd" d="M19.721 10.86c0-4.336-3.524-7.86-7.86-7.86S4 6.524 4 10.86c0 2.051 1.028 3.593 2.299 5.008l.352.383.18.19.363.376 1.178 1.203.61.595 1.011.96 1.298 1.203a.857.857 0 0 0 1.15 0l.182-.169 1.346-1.256.698-.663.419-.406.354-.352 1.299-1.334.182-.19.356-.381c1.349-1.47 2.444-3.036 2.444-5.167m-7.86-6.383a6.35 6.35 0 0 0-6.363 6.373c0 1.866 1.012 3.285 2.207 4.562l.346.362.528.53.438.427 1.006.95 1.637 1.525a.307.307 0 0 0 .412 0l2.225-2.082.563-.536.48-.468.35-.354.346-.36c1.192-1.27 2.197-2.69 2.197-4.556a6.367 6.367 0 0 0-6.373-6.373m3.291 6.035A3.296 3.296 0 0 0 11.86 7.22a3.296 3.296 0 0 0-3.292 3.292 3.296 3.296 0 0 0 3.292 3.292 3.296 3.296 0 0 0 3.291-3.292m-5.18-.01a1.888 1.888 0 1 1 3.778 0 1.887 1.887 0 0 1-1.89 1.888 1.887 1.887 0 0 1-1.888-1.888"/></svg>
